src/assets/svg/app_icon.svg

<svg width="128" height="128" viewBox="0 0 128 128" fill="none" xmlns="http://www.w3.org/2000/svg">
    <rect width="128" height="128" rx="33.7778" fill="#ECF7F3"/>
    <path d="M34.154 78.1637C33.5856 78.4369 33.014 78.6814 32.4445 78.9C31.4034 79.2998 30.2283 79.1168 29.358 78.4194C28.4878 77.7219 28.0532 76.615 28.2165 75.5117C28.4344 74.0403 28.2887 72.5378 27.7923 71.1356L27.7806 71.1021C27.218 69.4539 26.4631 68.4671 25.449 67.3117C25.3157 67.1598 25.1745 67.0017 25.0269 66.8366C24.0333 65.7249 22.7507 64.2897 21.6542 62.2279L21.654 62.2275C19.6693 58.4944 19.067 54.2559 20.298 50.2831C21.5396 46.2758 24.5376 42.89 29.0833 40.7054C29.6518 40.4321 30.2234 40.1877 30.7929 39.969C31.5475 39.6793 32.3724 39.6957 33.1006 39.9922M34.154 78.1637C34.1539 78.1638 34.1538 78.1638 34.1537 78.1639L33.2363 76.255M34.154 78.1637L33.2365 76.255M34.154 78.1637C37.6084 76.5036 40.1694 74.1498 41.7449 71.3566M33.2363 76.255L33.2365 76.255M33.2363 76.255L31.32 75.9712L33.2365 76.255M33.2363 76.255L32.7948 75.3362L33.2365 76.255M33.2365 76.255L34.4234 76.4307C34.526 75.7373 34.5809 75.0399 34.5884 74.3431M33.2365 76.255L34.5884 74.3431M41.7449 71.3566V81.6553C41.7449 82.4872 42.0753 83.2851 42.6635 83.8734L61.1368 102.351C61.7251 102.939 62.5231 103.27 63.3552 103.27C64.1873 103.27 64.9854 102.939 65.5738 102.351L84.1431 83.7818C84.7314 83.1934 85.062 82.3954 85.062 81.5634V68.6121M41.7449 71.3566C42.2426 70.4743 42.6419 69.5482 42.9401 68.5862C42.9513 68.5501 42.9623 68.514 42.9732 68.4778M41.7449 71.3566L42.9732 68.4778M85.062 68.6121C86.3071 72.6046 89.2979 75.9794 93.8279 78.1614C94.3999 78.4375 94.9746 78.6819 95.5359 78.8983C96.5767 79.2997 97.7524 79.1181 98.6237 78.4215C99.495 77.7249 99.9308 76.618 99.7684 75.5143C99.5517 74.0422 99.6984 72.5395 100.196 71.1372L100.207 71.105C100.771 69.4574 101.527 68.4711 102.542 67.316C102.675 67.1646 102.816 67.0071 102.963 66.8425C103.958 65.7309 105.242 64.296 106.34 62.2331C108.328 58.5022 108.934 54.2645 107.705 50.2911C106.467 46.2835 103.472 42.8956 98.9285 40.7074C98.4923 40.4964 98.0592 40.3089 97.643 40.1401C97.6325 40.1336 97.6218 40.127 97.6109 40.1204L97.5964 40.1116C95.148 38.6337 92.3912 37.7761 89.5638 37.5935C90.0636 37.4479 90.5264 37.1782 90.905 36.7997L91.045 36.6597C92.0556 35.649 92.2554 34.0828 91.5307 32.8508C91.4829 32.7696 91.4358 32.6953 91.3922 32.6295C90.1803 30.6968 88.5906 29.0284 86.7182 27.7245C84.8298 26.4093 82.6932 25.4925 80.4389 25.0298C78.1846 24.5672 75.8597 24.5684 73.6059 25.0334C71.352 25.4984 69.2165 26.4175 67.3294 27.7346C66.2844 28.4639 64.7501 30.0165 63.6431 31.175C63.0274 30.5243 62.3442 29.8227 61.696 29.2023C61.0802 28.613 60.3418 27.946 59.6714 27.5063L57.9606 30.1147L59.6714 27.5063C57.6746 26.1966 55.4277 25.3157 53.0728 24.9192C50.718 24.5228 48.3064 24.6195 45.9909 25.2032L45.986 25.2045C44.0587 25.6936 42.2307 26.513 40.5831 27.6262L40.5831 27.6262L40.5746 27.632C39.7637 28.1838 39.0006 28.803 38.2936 29.4829C37.2966 30.4338 36.4207 31.5038 35.6856 32.669C34.2752 34.8803 33.3908 37.3856 33.1006 39.9922M85.062 68.6121C85.0584 68.6007 85.0548 68.5893 85.0513 68.5778C84.7845 67.7145 84.6042 66.8387 84.5058 65.9584C84.4351 65.3255 84.4067 64.6902 84.419 64.0554M85.062 68.6121V65.9584C85.062 65.2556 84.8275 64.591 84.419 64.0554M33.1006 39.9922C33.1248 40.002 33.1488 40.0121 33.1727 40.0226C33.1877 40.0291 33.2027 40.0358 33.2176 40.0426C33.4513 40.149 33.6738 40.285 33.8794 40.4497C34.3574 40.8328 34.704 41.3395 34.8922 41.9013L41.583 56.6408C40.4865 54.5792 39.204 53.1441 38.2105 52.0325C38.0629 51.8673 37.9216 51.7093 37.7883 51.5574C36.7743 50.402 36.0194 49.4151 35.4568 47.767L35.4451 47.7334C34.9486 46.3312 34.803 44.8288 35.0208 43.3573C35.0943 42.861 35.0468 42.3639 34.893 41.9036L32.9999 41.9072C32.9999 41.9062 32.9999 41.9052 32.9999 41.9042C32.9989 41.2782 33.0311 40.6525 33.0965 40.0299L33.0981 40.0144C33.099 40.007 33.0998 39.9996 33.1006 39.9922ZM34.5884 74.3431C40.7607 70.4183 41.8411 63.8057 38.8133 58.1143C37.9063 56.4088 36.8818 55.2587 35.8892 54.1444C34.5888 52.6846 33.3431 51.2862 32.4877 48.7805L34.5884 74.3431ZM86.264 56.9283C85.6002 57.5088 84.8065 58.2794 83.9543 59.2445C83.9114 59.293 83.867 59.3403 83.8212 59.3861L65.7428 77.4666C65.1545 78.055 64.3565 78.3856 63.5245 78.3856C62.6924 78.3857 61.8944 78.0552 61.306 77.4669L42.5059 58.6687C43.0569 60.1146 43.4055 61.6116 43.5285 63.1198C43.5787 63.0958 43.6298 63.0731 43.6816 63.0516C44.8539 62.566 46.2033 62.8344 47.1005 63.7317L63.3628 79.994C63.077 80.2779 62.8145 80.5387 62.5779 80.7737L61.5213 81.8233L61.2411 82.1015L61.1691 82.173L61.1509 82.1911L61.1463 82.1957L61.1451 82.1968L61.1449 82.1971C61.1448 82.1971 61.1448 82.1972 63.3554 84.4233L48.0194 69.0873V65.95H44.8822L43.1995 67.6327C43.3305 67.075 43.4268 66.5135 43.4895 65.95L86.264 56.9283ZM86.264 56.9283C85.1136 59.1842 84.4661 61.6155 84.419 64.0554M42.9732 68.4778L44.8822 70.3868V81.6553L61.1373 97.9141L61.137 97.9143L63.3554 100.133L65.574 97.9146L65.5738 97.9143L81.9247 81.5634V70.3864L83.0837 69.232C83.0842 69.2314 83.0847 69.2309 83.0853 69.2304C83.0854 69.2302 83.0856 69.23 83.0858 69.2299C83.3105 69.0065 83.4644 68.853 83.6161 68.7017C83.7685 68.5496 83.9188 68.3998 84.1364 68.1834L81.9247 65.9584H79.8293H79.8273H78.7875V68.1103L77.0606 66.3753L78.6579 64.7843L78.66 64.7822C78.7874 64.6556 78.9823 64.4613 79.1783 64.266C79.3796 64.0653 79.5819 63.8636 79.713 63.7333C80.6118 62.84 81.9597 62.5751 83.1297 63.0618C83.6507 63.2785 84.0909 63.6254 84.419 64.0554M41.7848 57.0314C41.7848 57.0313 41.7847 57.0312 41.7847 57.0312C42.1083 56.7212 42.6559 56.1966 43.5825 55.3086L41.7848 57.0314Z" stroke="white" stroke-width="6.27451" stroke-linejoin="round"/>
    <path d="M80.8714 67.007C81.2265 66.654 81.5775 66.303 81.9243 65.9583V81.5633L63.355 100.133L44.8817 81.6553V65.95L63.355 84.4232C63.355 84.4232 71.78 76.0567 79.2733 68.5989C79.8123 68.062 80.345 67.5314 80.8714 67.007Z" fill="url(#paint0_linear_148_2902)"/>
    <path d="M38.8132 58.1143C42.1138 64.3187 40.5324 71.6177 32.7947 75.3362C32.3079 75.5702 31.8149 75.7812 31.3198 75.9713C31.6127 73.9932 31.4169 71.9735 30.7495 70.0886C29.2412 65.6703 26.5193 64.6947 24.424 60.7548C21.1254 54.5504 22.7047 47.2514 30.4424 43.5329C30.9292 43.2989 31.4222 43.0879 31.9173 42.8978C31.6244 44.8759 31.8202 46.8956 32.4876 48.7805C33.9959 53.1988 36.7179 54.1744 38.8132 58.1143Z" fill="url(#paint1_linear_148_2902)"/>
    <path d="M103.571 60.7589C101.474 64.6988 98.7516 65.6723 97.2391 70.0885C96.5706 71.9732 96.3734 73.9928 96.6646 75.9712C96.1716 75.7811 95.6765 75.5701 95.1918 75.3361C87.4562 71.6114 85.8811 64.3103 89.1859 58.1101C90.8425 54.9995 92.8856 53.7377 94.4189 51.1724C94.093 51.1515 93.765 51.139 93.4329 51.139C92.8457 51.1389 92.2591 51.1737 91.676 51.2434C90.8013 51.3581 89.9372 51.5426 89.0919 51.7949C88.0622 52.0837 87.0773 52.5132 86.1652 53.0713C85.1729 53.6792 83.4641 55.0601 81.6027 57.1679L63.5243 75.2484L43.5825 55.3087C43.5825 55.3087 36.1372 47.5396 36.1372 41.9013C36.1363 41.3857 36.1628 40.8704 36.2166 40.3576C36.452 38.2188 37.1768 36.163 38.3349 34.3495C38.9344 33.3981 39.6494 32.5245 40.4636 31.7487C41.0449 31.1891 41.6725 30.6797 42.3396 30.2258C43.6869 29.3154 45.1818 28.6454 46.7578 28.2454C48.6524 27.7678 50.6254 27.6887 52.5521 28.013C54.4787 28.3374 56.3171 29.0581 57.9508 30.1297L63.6267 35.8077L69.125 30.3073C70.6628 29.2339 72.4031 28.4849 74.2398 28.106C76.0765 27.727 77.9712 27.7261 79.8083 28.1031C81.6453 28.4801 83.3864 29.2273 84.9254 30.299C86.4644 31.3708 87.769 32.7447 88.7597 34.337C88.7827 34.3704 88.8057 34.4059 88.8266 34.4414L88.6866 34.5814C88.6365 34.573 88.5884 34.5626 88.5404 34.5563C87.6931 34.3975 86.8329 34.3178 85.9709 34.3182C85.8038 34.3182 85.6366 34.3224 85.4674 34.3286C82.4774 34.4273 79.5984 35.4848 77.2555 37.3452C76.3829 38.0266 75.5972 38.8123 74.9158 39.6849L63.3551 51.2455L61.8928 49.7811L61.3726 49.263L52.534 40.4223C52.2538 39.9346 51.8417 39.536 51.345 39.2721C50.8483 39.0082 50.2873 38.8899 49.7264 38.9307C49.3364 38.9597 48.9559 39.0653 48.6068 39.2414C48.2577 39.4176 47.9467 39.6609 47.6918 39.9574C47.4368 40.2539 47.2428 40.5977 47.1209 40.9693C46.999 41.3409 46.9516 41.7328 46.9814 42.1228C47.0099 42.568 47.143 43.0003 47.3699 43.3845L47.1151 43.1297C48.1262 44.6672 62.2856 58.3482 63.539 59.5577L78.745 44.3517C81.078 42.2932 84.0068 41.0325 87.1056 40.753C90.2043 40.4735 93.3115 41.1897 95.9752 42.7975C96.0504 42.8435 96.1235 42.8936 96.1988 42.9417C96.6562 43.1213 97.1158 43.3156 97.565 43.5328C105.301 47.2576 106.876 54.5587 103.571 60.7589Z" fill="url(#paint2_linear_148_2902)"/>
    <path d="M103.571 60.7589C101.474 64.6988 98.7516 65.6723 97.2391 70.0885C96.5706 71.9732 96.3734 73.9928 96.6646 75.9712C96.1716 75.7811 95.6765 75.5701 95.1918 75.3361C87.4562 71.6114 85.8811 64.3103 89.1859 58.1101C90.8425 54.9995 92.8856 53.7377 94.4189 51.1724C94.8679 50.4157 95.2363 49.6141 95.5179 48.7805C96.1863 46.8959 96.3836 44.8763 96.0924 42.8979C96.1279 42.9104 96.1632 42.927 96.1988 42.9417C96.6562 43.1213 97.1158 43.3156 97.565 43.5328C105.301 47.2576 106.876 54.5587 103.571 60.7589Z" fill="url(#paint3_linear_148_2902)"/>
    <path d="M88.5404 34.5563C87.6931 34.3975 86.8329 34.3178 85.9709 34.3182C85.8038 34.3182 85.6366 34.3224 85.4674 34.3286C82.4774 34.4273 79.5984 35.4848 77.2555 37.3452C76.3829 38.0266 75.5972 38.8123 74.9158 39.6849L63.3551 51.2455L61.8928 49.7811L61.3726 49.263L52.534 40.4223C52.2538 39.9346 51.8417 39.536 51.345 39.2721C50.8483 39.0082 50.2873 38.8899 49.7264 38.9307C49.3364 38.9597 48.9559 39.0653 48.6068 39.2414C48.2577 39.4176 47.9467 39.6609 47.6918 39.9574C47.4368 40.2539 47.2428 40.5977 47.1209 40.9693C46.999 41.3409 46.9516 41.7328 46.9814 42.1228C47.0099 42.568 47.143 43.0003 47.3699 43.3845L47.1151 43.1297C45.1356 40.118 44.3869 36.4616 45.0238 32.9144C45.1314 32.2942 45.2836 31.6826 45.4792 31.0844C45.7974 30.093 46.2264 29.1407 46.7578 28.2454C48.6524 27.7678 50.6254 27.6887 52.5521 28.013C54.4787 28.3374 56.3171 29.0581 57.9508 30.1297C59.5845 31.2013 63.6267 35.8077 63.6267 35.8077C63.6267 35.8077 67.5872 31.3806 69.125 30.3073C70.6628 29.2339 72.4031 28.4849 74.2398 28.106C76.0765 27.727 77.9712 27.7261 79.8083 28.1031C81.6453 28.4801 83.3864 29.2273 84.9254 30.299C86.4644 31.3708 87.769 32.7447 88.7597 34.337C88.7827 34.3704 88.8057 34.4059 88.8266 34.4414L88.6866 34.5814C88.6365 34.573 88.5884 34.5626 88.5404 34.5563Z" fill="url(#paint4_linear_148_2902)"/>
    <defs>
        <linearGradient id="paint0_linear_148_2902" x1="22.7975" y1="63.9749" x2="105.203" y2="63.9749" gradientUnits="userSpaceOnUse">
            <stop stop-color="#43B088"/>
            <stop offset="0.00503" stop-color="#43B088"/>
            <stop offset="1" stop-color="#52CC9F"/>
        </linearGradient>
        <linearGradient id="paint1_linear_148_2902" x1="64.0002" y1="27.8171" x2="64.0002" y2="100.133" gradientUnits="userSpaceOnUse">
            <stop stop-color="#3FAB83"/>
            <stop offset="1" stop-color="#66D5AD"/>
        </linearGradient>
        <linearGradient id="paint2_linear_148_2902" x1="36.1373" y1="51.8942" x2="105.203" y2="51.8942" gradientUnits="userSpaceOnUse">
            <stop offset="0.00503" stop-color="#E75C5B"/>
            <stop offset="0.1314" stop-color="#F13E44"/>
            <stop offset="0.25965" stop-color="#F92732"/>
            <stop offset="0.38038" stop-color="#FD1927"/>
            <stop offset="0.48492" stop-color="#FF1423"/>
            <stop offset="0.65075" stop-color="#FF1423"/>
            <stop offset="0.81658" stop-color="#77BB9A"/>
            <stop offset="0.9397" stop-color="#64D3AB"/>
        </linearGradient>
        <linearGradient id="paint3_linear_148_2902" x1="54745.9" y1="26786.9" x2="54745.9" y2="38235.9" gradientUnits="userSpaceOnUse">
            <stop stop-color="#3FAB83"/>
            <stop offset="1" stop-color="#66D5AD"/>
        </linearGradient>
        <linearGradient id="paint4_linear_148_2902" x1="44.8023" y1="39.5314" x2="88.8263" y2="39.5314" gradientUnits="userSpaceOnUse">
            <stop stop-color="#ED1C24"/>
            <stop offset="0.00503" stop-color="#ED1C24"/>
            <stop offset="1" stop-color="#E75C5B"/>
        </linearGradient>
    </defs>
</svg>

<svg width="128" height="128" fill="none" xmlns="http://www.w3.org/2000/svg"><rect width="128" height="128" rx="33.778" fill="#ECF7F3"/><path d="M34.154 78.164a22.84 22.84 0 0 1-1.71.736 3.137 3.137 0 0 1-4.228-3.388 9.113 9.113 0 0 0-.424-4.376l-.011-.034c-.563-1.648-1.318-2.635-2.332-3.79-.133-.152-.275-.31-.422-.475-.994-1.112-2.276-2.547-3.373-4.61-1.985-3.733-2.587-7.971-1.356-11.944 1.242-4.007 4.24-7.393 8.785-9.578a22.86 22.86 0 0 1 1.71-.736 3.137 3.137 0 0 1 2.308.023m1.053 38.172-.918-1.909m.918 1.909-.918-1.909m.918 1.909c3.454-1.66 6.015-4.014 7.59-6.807m-8.508 4.898-1.916-.284 1.916.284m0 0-.441-.919.441.919m0 0 1.187.176c.103-.694.158-1.391.165-2.088m-1.352 1.912 1.352-1.912m7.157-2.986v10.298c0 .832.33 1.63.919 2.218l18.473 18.478a3.139 3.139 0 0 0 4.437 0l18.57-18.57a3.138 3.138 0 0 0 .918-2.218v-12.95m-43.317 2.744a14.17 14.17 0 0 0 1.228-2.88m-1.228 2.88 1.228-2.88m42.089.135c1.245 3.993 4.236 7.367 8.766 9.55.572.275 1.147.52 1.708.736a3.137 3.137 0 0 0 4.232-3.384 9.118 9.118 0 0 1 .428-4.377l.011-.032c.564-1.648 1.32-2.634 2.335-3.789l.421-.474c.995-1.111 2.279-2.546 3.377-4.609 1.988-3.73 2.594-7.968 1.365-11.942-1.238-4.008-4.233-7.395-8.776-9.584-.437-.21-.87-.398-1.286-.567a3.813 3.813 0 0 0-.032-.02l-.015-.008a17.758 17.758 0 0 0-8.032-2.519c.5-.145.962-.415 1.341-.793l.14-.14a3.137 3.137 0 0 0 .486-3.81 16.95 16.95 0 0 0-24.201-5.116c-1.046.73-2.58 2.282-3.687 3.441a57.666 57.666 0 0 0-1.947-1.973c-.616-.589-1.354-1.256-2.025-1.696l-1.71 2.609 1.71-2.609a17.255 17.255 0 0 0-13.68-2.303l-.005.002a17.214 17.214 0 0 0-5.403 2.421l-.008.006a17.47 17.47 0 0 0-2.281 1.85c-.997.952-1.873 2.022-2.608 3.187a17.147 17.147 0 0 0-2.585 7.323m51.961 28.62-.01-.034a14.207 14.207 0 0 1-.546-2.62 14.59 14.59 0 0 1-.087-1.903m.643 4.557v-2.654c0-.702-.234-1.367-.643-1.903M33.101 39.992a2.68 2.68 0 0 1 .117.05 3.138 3.138 0 0 1 1.674 1.86l6.691 14.739c-1.096-2.062-2.379-3.497-3.372-4.608-.148-.166-.29-.324-.423-.476-1.014-1.155-1.769-2.142-2.331-3.79l-.012-.034a9.113 9.113 0 0 1-.424-4.376 3.135 3.135 0 0 0-.128-1.453L33 41.907v-.003c-.001-.626.031-1.252.096-1.874l.002-.016.003-.022zm1.487 34.351c6.173-3.925 7.253-10.537 4.225-16.229-.907-1.705-1.931-2.855-2.924-3.97-1.3-1.46-2.546-2.858-3.401-5.363l2.1 25.562zm51.676-17.415a25.617 25.617 0 0 0-2.31 2.317 3.178 3.178 0 0 1-.133.141l-18.078 18.08a3.137 3.137 0 0 1-4.437 0l-18.8-18.797c.55 1.446.9 2.943 1.023 4.45.05-.023.1-.046.153-.067a3.137 3.137 0 0 1 3.418.68l16.263 16.262-.785.78-1.057 1.05-.28.278-.072.071-.018.018-.005.005-.001.001 2.21 2.226L48.02 69.087V65.95h-3.137L43.2 67.633c.13-.558.227-1.12.29-1.683l42.774-9.022zm0 0c-1.15 2.256-1.798 4.688-1.845 7.127m-41.446 4.423 1.91 1.909v11.268l16.254 16.26 2.218 2.218 2.219-2.218 16.35-16.352V70.386l1.16-1.154.001-.002.531-.528.52-.519-2.211-2.225h-3.138v2.152l-1.726-1.735 1.597-1.59.002-.003.518-.516.535-.533a3.137 3.137 0 0 1 4.706.322m-42.634-7.024 1.798-1.722-1.798 1.722z" stroke="#fff" stroke-width="6.275" stroke-linejoin="round"/><path d="M80.871 67.007c.356-.353.707-.704 1.053-1.049v15.605l-18.569 18.57-18.473-18.478V65.95l18.473 18.473S71.78 76.057 79.273 68.6l1.598-1.592z" fill="url(#a)"/><path d="M38.813 58.114c3.3 6.205 1.72 13.504-6.018 17.222-.487.234-.98.445-1.475.635a12.25 12.25 0 0 0-.57-5.882c-1.509-4.419-4.23-5.394-6.326-9.334-3.299-6.205-1.72-13.504 6.018-17.222.487-.234.98-.445 1.475-.635a12.25 12.25 0 0 0 .57 5.883c1.509 4.418 4.23 5.393 6.326 9.333z" fill="url(#b)"/><path d="M103.571 60.759c-2.097 3.94-4.82 4.913-6.332 9.33a12.258 12.258 0 0 0-.574 5.882c-.493-.19-.989-.4-1.473-.635-7.736-3.725-9.31-11.026-6.006-17.226 1.656-3.11 3.7-4.372 5.233-6.938a14.78 14.78 0 0 0-2.743.071c-.875.115-1.739.3-2.584.552a11.62 11.62 0 0 0-2.927 1.276c-.992.608-2.7 1.99-4.562 4.097l-18.079 18.08-19.941-19.94s-7.446-7.768-7.446-13.407c0-.515.026-1.03.08-1.543a14.01 14.01 0 0 1 2.118-6.008c.6-.952 1.314-1.825 2.129-2.601a14.321 14.321 0 0 1 1.876-1.523 14.076 14.076 0 0 1 4.418-1.98A14.118 14.118 0 0 1 57.95 30.13l5.676 5.678 5.498-5.5a13.812 13.812 0 0 1 19.635 4.029c.023.033.046.069.067.104l-.14.14c-.05-.008-.099-.018-.147-.025a13.914 13.914 0 0 0-3.073-.227 13.945 13.945 0 0 0-8.212 3.016 13.547 13.547 0 0 0-2.34 2.34l-11.56 11.56-1.462-1.464-.52-.518-8.839-8.84a2.988 2.988 0 0 0-2.808-1.492 2.976 2.976 0 0 0-2.356 4.454l-.255-.255c1.011 1.537 15.17 15.218 16.424 16.428l15.206-15.206a14.622 14.622 0 0 1 17.23-1.554c.075.045.149.096.224.144.457.18.917.374 1.366.59 7.736 3.726 9.311 11.027 6.006 17.227z" fill="url(#c)"/><path d="M103.571 60.759c-2.097 3.94-4.82 4.913-6.332 9.33a12.258 12.258 0 0 0-.574 5.882c-.493-.19-.989-.4-1.473-.635-7.736-3.725-9.31-11.026-6.006-17.226 1.656-3.11 3.7-4.372 5.233-6.938.449-.756.817-1.558 1.099-2.391.668-1.885.866-3.905.574-5.883.036.012.071.029.107.044.457.18.917.374 1.366.59 7.736 3.726 9.311 11.027 6.006 17.227z" fill="url(#d)"/><path d="M88.54 34.556a13.914 13.914 0 0 0-3.073-.227 13.945 13.945 0 0 0-8.212 3.016 13.547 13.547 0 0 0-2.34 2.34l-11.56 11.56-1.462-1.464-.52-.518-8.839-8.84a2.988 2.988 0 0 0-2.808-1.492 2.976 2.976 0 0 0-2.356 4.454l-.255-.255a14.071 14.071 0 0 1-2.091-10.216c.107-.62.26-1.231.455-1.83.318-.991.747-1.943 1.279-2.839A14.118 14.118 0 0 1 57.95 30.13c1.633 1.071 5.676 5.678 5.676 5.678s3.96-4.427 5.498-5.5a13.812 13.812 0 0 1 19.635 4.029c.023.033.046.069.067.104l-.14.14c-.05-.008-.099-.018-.147-.025z" fill="url(#e)"/><defs><linearGradient id="a" x1="22.797" y1="63.975" x2="105.203" y2="63.975" gradientUnits="userSpaceOnUse"><stop stop-color="#43B088"/><stop offset=".005" stop-color="#43B088"/><stop offset="1" stop-color="#52CC9F"/></linearGradient><linearGradient id="b" x1="64" y1="27.817" x2="64" y2="100.133" gradientUnits="userSpaceOnUse"><stop stop-color="#3FAB83"/><stop offset="1" stop-color="#66D5AD"/></linearGradient><linearGradient id="c" x1="36.137" y1="51.894" x2="105.203" y2="51.894" gradientUnits="userSpaceOnUse"><stop offset=".005" stop-color="#E75C5B"/><stop offset=".131" stop-color="#F13E44"/><stop offset=".26" stop-color="#F92732"/><stop offset=".38" stop-color="#FD1927"/><stop offset=".485" stop-color="#FF1423"/><stop offset=".651" stop-color="#FF1423"/><stop offset=".817" stop-color="#77BB9A"/><stop offset=".94" stop-color="#64D3AB"/></linearGradient><linearGradient id="d" x1="54745.9" y1="26786.9" x2="54745.9" y2="38235.9" gradientUnits="userSpaceOnUse"><stop stop-color="#3FAB83"/><stop offset="1" stop-color="#66D5AD"/></linearGradient><linearGradient id="e" x1="44.802" y1="39.531" x2="88.826" y2="39.531" gradientUnits="userSpaceOnUse"><stop stop-color="#ED1C24"/><stop offset=".005" stop-color="#ED1C24"/><stop offset="1" stop-color="#E75C5B"/></linearGradient></defs></svg>
